-----BEGIN PGP MESSAGE-----

hQGMA0NYi7bKmnYtAQv9GpJMPACW0Amw0SwFzN37W8n82EHNZ7bwbnv/P8SCAoI/
7Czul0EVjkBFpwTX5uy6mEIQLlXrPWFe2CB8OsZ10+IddH7527uanGOjIuqc/yO5
JxRciWmchWzcO40Yl/XHKODu324zmyaMP0h12AGBweQdbgKyju/ZjSAJJ9lsw6JV
bTAh0oGJK8zOVQAk9RBXWdmWZogJZQUYasxR3kdjg2fQgSebORjmSpnP7EPAEHMJ
+wX72RbvFPy5Svb903JirQg0hTJjb8pUq8uHfNTNANJJFUy1mk0Y89Ev8POuqzfy
vFzTLWeU4FkyoMhyUTUL1jPwTCA2Xfn5WZEzWTh44FTyoq2v+82SvlfwRQWB7HMh
0MjI24SKY6kmrzX3Ttl0pLG7gWgNb4Rpvp84JzHXq9NE/vq5LVMXA0JvR8Krk6yL
GfbwTlnPv9FCrD3iUxI9eic4Us2kMgZDBRXlAl4kHokMCGidUv8a1HezeliAffR8
FgvmgDqO8mAcWftOgACH0usBOQorfKtmxBCTPXzmr8KGAg21ZNCU57ZfAAruGF9K
fhoepMwsQFA9x+WU68P9bGeVuenUiOF6x8eAr9TFULTXYzDNRaGzggDVnkulCsCs
18zAobLInm4DvoEa4JPHL8Ij6NbyMd/Xwl3LVxDVjBBXgF2eDPbXeLvHWTO3z7F8
L2CaNpPVaVtYJerR+pulcyvhl9WiDcXpHq0OuIHMbL8SWdutjV9mbv34l5XRp1In
+OkZVb6DAarKzySBnQ/0ohSh4OL7jlb5piha6VtdQ3uSYwhQoPxo00tiJZZNpJV7
lRk90n2ts7YdN1jeUoYb5o8yVcZSjKxeBghhvX+2tqXrbRl2tQ9DSgPf0JMAmzI9
SWCweXM2NXnE1o1c94JvV55zg7OrYiYzNa1QYf/AhBQH1a36UPBR7Ff/8O+mg95V
XiLgh0dPnc90P8IqhDRS2LAUvG+VoJZQ4mSRijWNOIOveuQUqZsgtEY9pejRK1YI
QLI8xMUFzGaAYJrhctFZ+TQ/fmbnwNFkJtvkUDfQowvWGVn4Z7MyrgS2LagSQ+fA
hPFVxqlpuzzmw8mjt3JMCOq1HkmRRSkrZHDqbTuqKN5bYQrowUacQ+8obUS2cR6E
oNAJIEvBMp352uFIPXJVPSrNUmxXGj0I0B5I1Ut8NQNqDOYwq9QOrrx/hhNwqx8B
u4u56d8MhUglhRIO1n7dtCoIzQX5hTqAgtH7RkmXO31TRNYqsxOnmTSj3HRJph4c
wcPLe+c7v55oT39G5Ouv3eGUosYeCEGNnkOcKAsRI/Rb7Vd4Y3j8dGgx2KxiYPWI
OtykJ1EIN0/1uVuZz5RLE3CfAbYU3Rx+hOIpwfyf81oVbPLe4DQYx2hys3OefHKq
zVbxfsBTfB/6wWb2FfqtYWeEY6CrsinxtMfLkr5REwyUS94Wuw0HxtDJeoN7vIk5
3ypn7UznjZ1bzPJmFDUAeHcs7I5YfFsajLsC8IahHFJOb3/CA7Pf5s5ymxW41hWE
JqJXCSk0jSVmkj/UCqRUEjgmFCXp4Z3XB8R4MtMI1DwGdrtuhAmB1H0OV4SSjCHL
2XCfCt/Y3wiSuw6MZncpdD0e4JMaHxhYim4eQPk+cFiYpTewVxHJ7X1vQLXnfHkQ
9PEO3yJ88S7V1UvFqbBJirvUqTC+AZJ6VpVnzNhtKBSd+om/sNpUZX30U8Q8bJjO
33X2gP2qlsf7muqHoY8z6lcKsU7yrta29pUcCrRNh4NIHMF2/ujWN0sUTJtAEVM2
ppyDW5wItjS+Av7QQZ3sSdESQDxrcwDUih9xd0x/SeVOXHbvuN2O3wNyZz4RTAVJ
KZgPFWB+D0MmbcwwARenZZXR29btr2ZJJvAutQgFhp3mcnFD0RsQqqD/XD4PPV35
O5rvu8LtKWcXcWEHsZPPWsaoVRmw7HIl+SfpeRdNzKznkXOMXvoxX0rZv6e12LSn
ZMexMO9fQm4SaAtxbYpPeFayOe/wYjVSGwzOhwm5CRqOELUlowP1w96HT4W0Ujoc
2J6nYVGHSWvcVZUOP30h4vnTgMvL74tSdTQ5B2i6NWimfXXEICUMIx8ix6TG7nsK
8d1tMBgFisVAxsDyMAC8rs8mZHeprquVhmjnfE++lGQGHSZduYZBeW6SDFO+LihK
mJ1sM6euTmInhlKPgX9VZzJxM9jMyWm1KCMIp8E2F01Im9+lsOrRUw8PG5t5l5xS
a7uc/BkJxb6RuBKB6CO3G21JP23qKQ8qenyKxlta31y1aJbH3Xxz08dvni/1+Cb1
JkHimGEO6PRBANVtfgM8rHiwXvRltEGZYAEY99o7TOFsZinPQz62yRUOON3bQCuV
QCA9kYGzCpdbaPW/rGnjAG89WHzavuZ/upTQii6XKj+d7UAOZHKTkva+DN/T1IMg
PgGuAj9M1QftpZ+M/qrvarGhACwzep68f5nfJ1q61N1EE0Zr46hpSZQU68J42Bv2
C5twu228OH1A/i8qE3YMXU/fQs8ubpHFHV+MDsq7u2wSdS7PrRJ7sSmbI6MOQB4m
nuGQxtgRMmbjcAYAnGYTuIf6sgc/M+u31A0eumoq7v2QaBkpjI3jY17Cx9PO1y8i
aelF89XdoDH8ovBoj//LGqReivRJD+g3ugjAtXmYTu2rA7f5VF8INK7+tHTLGmXH
MmyycVDEPBLmFNDbG1YxLPczyVqyttmqf6wA68p7O6n2hIuSDxWr3bm5bB9DZlH4
ElWpIqNKG/t7u1OiK2BKtnI/qVNgeJbHsl5Cc4KjdmNBzrHikkfPoyJhlUVpSlug
kWkzW81byhsNlUexWKdADRsUiDSPbkBh1e6hxQCYAQOt6QWN1YOZABOXeXPM+VTh
PH5HeeNayv35Suiw230T2xRjMm5Q/xGXf726zHuzvZCi6uHoD7rHDStue0Y+HGsl
R78oxUOIhVJxLNCBCmZmdpxodQIOBqtNS0Wu2133MDenarFXLcb+Ds8XDt3tdLvg
6JWvlRoeCNG/y8X30lf2I3wC5fD3AHXhRaogQeVHroOFuPNe/Xyt1TBUcD20aJZh
9myvd7zC53R5TlV1laM9bqGqTPEO4cXtvY5wL3LEkwNUbHzAwnrZEdj2W3oWtQyV
bvILOd0X1is50WQPkAJHiEGhv9iJAU1Pik0jsrNDyDws3zRCqkXQT6k2OMbh5U2k
Ue8q4PVmF7C9IIKx63lwWZuMHgJGXZ/lQSmxq2aSRoW3L3d490612eUJjZzSWUua
z8BI8CVxYfTGO+vEPtGccSnwtdPatC9ZvRg38VjlUfp7gsJqwcBxxhnc5aXIecon
aG7b9zAoRWlBEB8wTbcxTme+BA/8ObBpRrx75Hjhu3OOgEXXdTgHT23OZgxhQnSY
cH2Iqj+InnNPIVXKWCYn25lXF0bT4epK935hfKaj8LJSzaJR6dwjAr4uQ657hQIM
gwb0XUh6SIGv2Gm2JK/rpnEXvol4TyrzgvU8XpDsUmCu3LjM81orC56weNjK8Mxu
jmw0SMAqz1EkPm8tBWJIfJemz2wlF7XuC+juYHwQaZi5IHRgB6QTAub9G4Cu9uhR
2EAHb0uYucu4kSbzcvgAuoitSosQb25kpRKi
=mCY8
-----END PGP MESSAGE-----
